Adwaita++-Light/panel/24/guitarix-tray.svg

<svg height="24" width="24" xmlns="http://www.w3.org/2000/svg">
  <g fill="#444">
    <path d="m4.8007813 9c-.4432001 0-.8007813.377019-.8007813.845703v9.308594c0 .468684.3575812.845703.8007813.845703h14.3984377c.4432 0 .800781-.377019.800781-.845703v-9.308594c0-.468684-.357581-.845703-.800781-.845703zm3.6992187 2a3.5 3.5 0 0 1 3.5 3.5 3.5 3.5 0 0 1 3.5-3.5 3.5 3.5 0 0 1 3.5 3.5 3.5 3.5 0 0 1 -3.5 3.5 3.5 3.5 0 0 1 -3.5-3.5 3.5 3.5 0 0 1 -3.5 3.5 3.5 3.5 0 0 1 -3.5-3.5 3.5 3.5 0 0 1 3.5-3.5zm0 2a1.5 1.5 0 0 0 -1.5 1.5 1.5 1.5 0 0 0 1.5 1.5 1.5 1.5 0 0 0 1.5-1.5 1.5 1.5 0 0 0 -1.5-1.5zm7 0a1.5 1.5 0 0 0 -1.5 1.5 1.5 1.5 0 0 0 1.5 1.5 1.5 1.5 0 0 0 1.5-1.5 1.5 1.5 0 0 0 -1.5-1.5z"/>
    <path d="m4.8007813 4c-.4432001 0-.8007813.3192878-.8007813.7148438v3.5703124c0 .3955561.3575812.7148438.8007813.7148438h14.3984377c.4432 0 .800781-.3192878.800781-.7148438v-3.5703124c0-.395556-.357581-.7148438-.800781-.7148438zm1.0703125 1h12.2578122c.482534 0 .871094.3018313.871094.6757812v1.6484376c0 .3739499-.38856.6757812-.871094.6757812h-12.2578122c-.4825341 0-.8710938-.3018313-.8710938-.6757812v-1.6484376c0-.37395.3885597-.6757812.8710938-.6757812zm.6289062 1a.5.5 0 0 0 -.5.5.5.5 0 0 0 .5.5.5.5 0 0 0 .5-.5.5.5 0 0 0 -.5-.5zm2 0a.5.5 0 0 0 -.5.5.5.5 0 0 0 .5.5.5.5 0 0 0 .5-.5.5.5 0 0 0 -.5-.5zm2 0a.5.5 0 0 0 -.5.5.5.5 0 0 0 .5.5.5.5 0 0 0 .5-.5.5.5 0 0 0 -.5-.5zm6.5 0v1h1v-1z"/>
  </g>
</svg>

<svg xmlns="http://www.w3.org/2000/svg" width="24" height="24" version="1.1">
 <defs>
  <style id="current-color-scheme" type="text/css">
   .ColorScheme-Text { color:#444444; } .ColorScheme-Highlight { color:#4285f4; }
  </style>
 </defs>
 <path style="fill:currentColor" class="ColorScheme-Text" d="M 4.8007813,9 C 4.3575812,9 4,9.377019 4,9.845703 v 9.308594 C 4,19.622981 4.3575812,20 4.8007813,20 H 19.199219 C 19.642419,20 20,19.622981 20,19.154297 V 9.845703 C 20,9.377019 19.642419,9 19.199219,9 Z M 8.5,11 A 3.5,3.5 0 0 1 12,14.5 3.5,3.5 0 0 1 15.5,11 3.5,3.5 0 0 1 19,14.5 3.5,3.5 0 0 1 15.5,18 3.5,3.5 0 0 1 12,14.5 3.5,3.5 0 0 1 8.5,18 3.5,3.5 0 0 1 5,14.5 3.5,3.5 0 0 1 8.5,11 Z m 0,2 A 1.5,1.5 0 0 0 7,14.5 1.5,1.5 0 0 0 8.5,16 1.5,1.5 0 0 0 10,14.5 1.5,1.5 0 0 0 8.5,13 Z m 7,0 A 1.5,1.5 0 0 0 14,14.5 1.5,1.5 0 0 0 15.5,16 1.5,1.5 0 0 0 17,14.5 1.5,1.5 0 0 0 15.5,13 Z"/>
 <path style="fill:currentColor" class="ColorScheme-Text" d="M 4.8007813,4 C 4.3575812,4 4,4.3192878 4,4.7148438 V 8.2851562 C 4,8.6807123 4.3575812,9 4.8007813,9 H 19.199219 C 19.642419,9 20,8.6807122 20,8.2851562 V 4.7148438 C 20,4.3192878 19.642419,4 19.199219,4 Z M 5.8710938,5 H 18.128906 C 18.61144,5 19,5.3018313 19,5.6757812 V 7.3242188 C 19,7.6981687 18.61144,8 18.128906,8 H 5.8710938 C 5.3885597,8 5,7.6981687 5,7.3242188 V 5.6757812 C 5,5.3018312 5.3885597,5 5.8710938,5 Z M 6.5,6 A 0.5,0.5 0 0 0 6,6.5 0.5,0.5 0 0 0 6.5,7 0.5,0.5 0 0 0 7,6.5 0.5,0.5 0 0 0 6.5,6 Z m 2,0 A 0.5,0.5 0 0 0 8,6.5 0.5,0.5 0 0 0 8.5,7 0.5,0.5 0 0 0 9,6.5 0.5,0.5 0 0 0 8.5,6 Z m 2,0 A 0.5,0.5 0 0 0 10,6.5 0.5,0.5 0 0 0 10.5,7 0.5,0.5 0 0 0 11,6.5 0.5,0.5 0 0 0 10.5,6 Z M 17,6 v 1 h 1 V 6 Z"/>
</svg>
